%
(Header)
(Generated by gcodetools from Inkscape.)
(Using default header. To add your own header create file "header" in the output dir.)
M3
(Header end.)
G21 (All units in mm)

(Start cutting path id: path3735)
(Change tool to Default tool)

G00 Z5.000000
G00 X146.907319 Y37.429871

G01 Z-1.000000 F100.0(Penetrate)
G01 X146.907319 Y35.032091 Z-1.000000 F400.000000
G03 X145.807486 Y35.515713 Z-1.000000 I-4.604253 J-8.978382
G03 X144.674889 Y35.858911 Z-1.000000 I-3.400126 J-9.180407
G03 X143.509054 Y36.063951 Z-1.000000 I-2.299515 J-9.657865
G03 X142.277109 Y36.134521 Z-1.000000 I-1.231945 J-10.717797
G03 X140.441148 Y35.949264 Z-1.000000 I-0.000000 J-9.190151
G03 X139.438349 Y35.555741 Z-1.000000 I0.625705 J-3.068915
G03 X138.757591 Y34.834020 Z-1.000000 I1.009013 J-1.633664
G03 X138.501279 Y33.819411 Z-1.000000 I1.880004 J-1.014609
G03 X138.683117 Y33.028020 Z-1.000000 I1.813058 J0.000000
G03 X139.176519 Y32.427601 Z-1.000000 I1.494129 J0.724880
G03 X139.903088 Y32.044461 Z-1.000000 I1.644976 J2.238971
G03 X141.891259 Y31.476751 Z-1.000000 I5.819322 J16.614551
G01 X142.759419 Y31.283821 Z-1.000000
G02 X145.334736 Y30.465194 Z-1.000000 I-2.932720 J-13.686197
G02 X146.590369 Y29.643961 Z-1.000000 I-1.697907 J-3.966557
G02 X147.406418 Y28.452379 Z-1.000000 I-2.149066 J-2.347001
G02 X147.734139 Y26.708741 Z-1.000000 I-4.474642 J-1.743638
G02 X147.279390 Y24.789339 Z-1.000000 I-4.278073 J0.000000
G02 X146.025369 Y23.304981 Z-1.000000 I-3.710312 J1.862667
G02 X144.206344 Y22.427171 Z-1.000000 I-3.224678 J4.358655
G02 X141.353819 Y22.050971 Z-1.000000 I-2.852525 J10.626481
G02 X140.118961 Y22.109952 Z-1.000000 I0.000000 J12.956218
G02 X138.763109 Y22.299021 Z-1.000000 I1.514194 J15.814708
G02 X137.438668 Y22.582638 Z-1.000000 I3.121187 J17.809657
G02 X135.938129 Y23.015601 Z-1.000000 I5.910452 J23.300829
G01 X135.938129 Y25.633871 Z-1.000000
G03 X137.372726 Y24.977671 Z-1.000000 I7.246294 J13.945713
G03 X138.707989 Y24.531441 Z-1.000000 I4.628607 J11.629394
G03 X140.083551 Y24.260676 Z-1.000000 I2.852071 J10.859826
G03 X141.408939 Y24.173151 Z-1.000000 I1.325388 J9.991370
G03 X143.145976 Y24.361965 Z-1.000000 I0.000000 J8.084538
G03 X144.165019 Y24.779481 Z-1.000000 I-0.690028 J3.136532
G03 X144.876257 Y25.537941 Z-1.000000 I-1.153596 J1.794481
G03 X145.129649 Y26.515811 Z-1.000000 I-1.760163 J0.977870
G03 X144.931205 Y27.452785 Z-1.000000 I-2.311234 J0.000000
G03 X144.426849 Y28.100561 Z-1.000000 I-1.552382 J-0.688445
G03 X143.673695 Y28.516913 Z-1.000000 I-1.591244 J-1.989076
G03 X141.381379 Y29.161651 Z-1.000000 I-6.416906 J-18.417378
G01 X140.499439 Y29.368351 Z-1.000000
G02 X138.264439 Y30.092267 Z-1.000000 I2.292892 J10.891123
G02 X137.095679 Y30.884191 Z-1.000000 I1.635130 J3.671621
G02 X136.347339 Y32.042715 Z-1.000000 I2.234618 J2.264391
G02 X136.048379 Y33.709171 Z-1.000000 I4.495088 J1.666456
G02 X136.477943 Y35.674723 Z-1.000000 I4.711662 J0.000000
G02 X137.591779 Y37.071581 Z-1.000000 I3.376499 J-1.549867
G02 X139.257725 Y37.895893 Z-1.000000 I2.915833 J-3.797334
G02 X141.973939 Y38.256701 Z-1.000000 I2.716214 J-10.043612
G02 X143.375016 Y38.202053 Z-1.000000 I0.000000 J-17.988042
G02 X144.619769 Y38.049991 Z-1.000000 I-1.120669 J-14.344252
G02 X145.843258 Y37.782897 Z-1.000000 I-2.068265 J-12.409990
G02 X146.907319 Y37.429871 Z-1.000000 I-2.638105 J-9.731662
G01 X146.907319 Y37.429871 Z-1.000000
G00 Z5.000000

(End cutting path id: path3735)


(Start cutting path id: path3733)
(Change tool to Default tool)

G00 Z5.000000
G00 X132.630839 Y37.292071

G01 Z-1.000000 F100.0(Penetrate)
G01 X132.630839 Y34.921851 Z-1.000000 F400.000000
G03 X131.529234 Y35.447817 Z-1.000000 I-5.050903 J-9.162203
G03 X130.467319 Y35.803791 Z-1.000000 I-3.324393 J-8.155192
G03 X129.381983 Y36.031303 Z-1.000000 I-2.206105 J-7.821604
G03 X128.290019 Y36.106961 Z-1.000000 I-1.091964 J-7.842247
G03 X126.026732 Y35.660927 Z-1.000000 I0.000000 J-5.965262
G03 X124.459069 Y34.535991 Z-1.000000 I1.583474 J-3.861443
G03 X123.501142 Y32.825992 Z-1.000000 I3.555710 J-3.115191
G03 X123.094809 Y30.153831 Z-1.000000 I8.583288 J-2.672161
G03 X123.500134 Y27.480292 Z-1.000000 I9.020046 J-0.000000
G03 X124.459069 Y25.757891 Z-1.000000 I4.578533 J1.420927
G03 X126.024142 Y24.643625 Z-1.000000 I3.134090 J2.745805
G03 X128.290019 Y24.200711 Z-1.000000 I2.265877 J5.574476
G03 X129.382885 Y24.273021 Z-1.000000 I-0.000000 J8.294769
G03 X130.467319 Y24.490101 Z-1.000000 I-1.114308 J8.383780
G03 X131.530111 Y24.856580 Z-1.000000 I-2.495337 J8.960774
G03 X132.630839 Y25.385821 Z-1.000000 I-4.199649 J10.143823
G01 X132.630839 Y23.043161 Z-1.000000
G02 X131.548783 Y22.609192 Z-1.000000 I-4.417010 J9.447380
G02 X130.425979 Y22.299021 Z-1.000000 I-3.329362 J9.864779
G02 X129.288898 Y22.116344 Z-1.000000 I-2.175021 J9.908291
G02 X128.014409 Y22.050971 Z-1.000000 I-1.274489 J12.390727
G02 X124.793943 Y22.664723 Z-1.000000 I0.000000 J8.756060
G02 X122.474699 Y24.242051 Z-1.000000 I2.357157 J5.959602
G02 X121.009912 Y26.665778 Z-1.000000 I4.972082 J4.659381
G02 X120.421419 Y30.153831 Z-1.000000 I10.042761 J3.488053
G02 X121.019179 Y33.690006 Z-1.000000 I10.758365 J-0.000000
G02 X122.488479 Y36.093181 Z-1.000000 I6.267774 J-2.181361
G02 X124.831105 Y37.641681 Z-1.000000 I4.620679 J-4.444076
G02 X128.179769 Y38.256701 Z-1.000000 I3.348664 J-8.808893
G02 X129.344199 Y38.193753 Z-1.000000 I-0.000000 J-10.801476
G02 X130.467319 Y38.008651 Z-1.000000 I-1.109458 J-10.231568
G02 X131.563292 Y37.713155 Z-1.000000 I-2.065137 J-9.839616
G02 X132.630839 Y37.292071 Z-1.000000 I-3.231015 J-9.755177
G01 X132.630839 Y37.292071 Z-1.000000
G00 Z5.000000

(End cutting path id: path3733)


(Start cutting path id: path3731)
(Change tool to Default tool)

G00 Z5.000000
G00 X113.696589 Y37.884631

G01 Z-1.000000 F100.0(Penetrate)
G01 X116.232189 Y37.884631 Z-1.000000 F400.000000
G01 X116.232189 Y22.450601 Z-1.000000
G01 X113.696589 Y22.450601 Z-1.000000
G01 X113.696589 Y37.884631 Z-1.000000
G00 Z5.000000

(End cutting path id: path3731)


(Start cutting path id: path3731)
(Change tool to Default tool)

G00 Z5.000000
G00 X113.696589 Y43.892871

G01 Z-1.000000 F100.0(Penetrate)
G01 X116.232189 Y43.892871 Z-1.000000 F400.000000
G01 X116.232189 Y40.682041 Z-1.000000
G01 X113.696589 Y40.682041 Z-1.000000
G01 X113.696589 Y43.892871 Z-1.000000
G00 Z5.000000

(End cutting path id: path3731)


(Start cutting path id: path3729)
(Change tool to Default tool)

G00 Z5.000000
G00 X98.207439 Y34.921851

G01 Z-1.000000 F100.0(Penetrate)
G02 X99.319140 Y36.476577 Z-1.000000 I7.407914 J-4.122179 F400.000000
G02 X100.481199 Y37.443661 Z-1.000000 I3.939397 J-3.551910
G02 X101.866864 Y38.034771 Z-1.000000 I2.677201 J-4.356148
G02 X103.595569 Y38.256701 Z-1.000000 I1.728705 J-6.621846
G02 X105.774809 Y37.783702 Z-1.000000 I0.000000 J-5.256683
G02 X107.316269 Y36.561711 Z-1.000000 I-1.695673 J-3.722199
G02 X108.226324 Y34.743445 Z-1.000000 I-4.086815 J-3.182359
G02 X108.625409 Y31.766141 Z-1.000000 I-10.906298 J-2.977304
G01 X108.625409 Y22.450601 Z-1.000000
G01 X106.076039 Y22.450601 Z-1.000000
G01 X106.076039 Y31.683461 Z-1.000000
G03 X105.824778 Y33.820078 Z-1.000000 I-9.210075 J-0.000000
G03 X105.290559 Y34.976971 Z-1.000000 I-3.143133 J-0.749616
G03 X104.347124 Y35.740777 Z-1.000000 I-1.912257 J-1.397415
G03 X102.892769 Y36.051841 Z-1.000000 I-1.454355 J-3.244336
G03 X101.087514 Y35.687842 Z-1.000000 I0.000000 J-4.658584
G03 X99.778409 Y34.742701 Z-1.000000 I1.387725 J-3.301309
G03 X98.968326 Y33.308321 Z-1.000000 I3.062030 J-2.675259
G03 X98.634629 Y31.173581 Z-1.000000 I6.661371 J-2.134740
G01 X98.634629 Y22.450601 Z-1.000000
G01 X96.085259 Y22.450601 Z-1.000000
G01 X96.085259 Y31.683461 Z-1.000000
G03 X95.832535 Y33.832518 Z-1.000000 I-9.263700 J0.000000
G03 X95.299779 Y34.976971 Z-1.000000 I-3.066837 J-0.731420
G03 X94.355151 Y35.738427 Z-1.000000 I-1.896199 J-1.385681
G03 X92.874429 Y36.051841 Z-1.000000 I-1.480722 J-3.341119
G03 X91.098147 Y35.687244 Z-1.000000 I-0.000000 J-4.509236
G03 X89.787629 Y34.728921 Z-1.000000 I1.423918 J-3.322462
G03 X88.976675 Y33.294873 Z-1.000000 I3.070674 J-2.682786
G03 X88.643860 Y31.173581 Z-1.000000 I6.593913 J-2.121292
G01 X88.643860 Y22.450601 Z-1.000000
G01 X86.094476 Y22.450601 Z-1.000000
G01 X86.094476 Y37.884631 Z-1.000000
G01 X88.643860 Y37.884631 Z-1.000000
G01 X88.643860 Y35.486841 Z-1.000000
G02 X89.647377 Y36.765224 Z-1.000000 I5.959910 J-3.645401
G02 X90.724699 Y37.581461 Z-1.000000 I3.428098 J-3.405543
G02 X91.985981 Y38.069474 Z-1.000000 I2.376205 J-4.267449
G02 X93.604789 Y38.256701 Z-1.000000 I1.618808 J-6.904675
G02 X95.209353 Y38.021563 Z-1.000000 I-0.000000 J-5.592275
G02 X96.457329 Y37.402311 Z-1.000000 I-1.184191 J-3.953642
G02 X97.447106 Y36.402403 Z-1.000000 I-2.491744 J-3.456325
G02 X98.207439 Y34.921851 Z-1.000000 I-4.872150 J-3.437587
G01 X98.207439 Y34.921851 Z-1.000000
G00 Z5.000000

(End cutting path id: path3729)


(Start cutting path id: path3727)
(Change tool to Default tool)

G00 Z5.000000
G00 X75.896997 Y30.208951

G01 Z-1.000000 F100.0(Penetrate)
G03 X72.891525 Y29.962596 Z-1.000000 I-0.000000 J-18.456222 F400.000000
G03 X71.638859 Y29.506161 Z-1.000000 I0.587476 J-3.559464
G03 X70.803248 Y28.604288 Z-1.000000 I1.103065 J-1.860067
G03 X70.453747 Y27.108371 Z-1.000000 I3.026630 J-1.495917
G03 X70.698601 Y25.866435 Z-1.000000 I3.272074 J-0.000000
G03 X71.335691 Y24.958631 Z-1.000000 I2.323737 J0.953327
G03 X72.317214 Y24.401123 Z-1.000000 I1.842577 J2.101190
G03 X73.761038 Y24.173151 Z-1.000000 I1.443824 J4.458132
G03 X75.682540 Y24.577876 Z-1.000000 I-0.000000 J4.763691
G03 X77.137232 Y25.661431 Z-1.000000 I-1.639578 J3.719417
G03 X78.050819 Y27.299144 Z-1.000000 I-3.635038 J3.101457
G03 X78.418807 Y29.643961 Z-1.000000 I-7.286584 J2.344817
G01 X78.418807 Y30.208951 Z-1.000000
G01 X75.896997 Y30.208951 Z-1.000000
G00 Z5.000000

(End cutting path id: path3727)


(Start cutting path id: path3727)
(Change tool to Default tool)

G00 Z5.000000
G00 X80.954397 Y31.256261

G01 Z-1.000000 F100.0(Penetrate)
G01 X80.954397 Y22.450601 Z-1.000000 F400.000000
G01 X78.418807 Y22.450601 Z-1.000000
G01 X78.418807 Y24.793261 Z-1.000000
G02 X77.408061 Y23.541026 Z-1.000000 I-5.456557 J3.370248
G02 X76.255287 Y22.712431 Z-1.000000 I-3.459992 J3.597488
G02 X74.914518 Y22.239761 Z-1.000000 I-2.434302 J4.767164
G02 X73.085800 Y22.050971 Z-1.000000 I-1.828718 J8.762584
G02 X70.865371 Y22.428696 Z-1.000000 I0.000000 J6.715183
G02 X69.309975 Y23.373891 Z-1.000000 I1.449938 J4.138355
G02 X68.306884 Y24.876217 Z-1.000000 I2.907341 J3.027248
G02 X67.918156 Y26.943001 Z-1.000000 I5.299955 J2.066784
G02 X68.416122 Y29.300871 Z-1.000000 I5.831241 J-0.000000
G02 X69.654485 Y30.870411 Z-1.000000 I3.670604 J-1.622794
G02 X71.543783 Y31.778369 Z-1.000000 I3.192506 J-4.223407
G02 X74.863469 Y32.193331 Z-1.000000 I3.319686 J-13.071229
G01 X78.418807 Y32.193331 Z-1.000000
G01 X78.418807 Y32.441381 Z-1.000000
G03 X78.091354 Y34.036706 Z-1.000000 I-4.049872 J-0.000000
G03 X77.261255 Y35.142331 Z-1.000000 I-2.682700 J-1.149730
G03 X76.011846 Y35.817853 Z-1.000000 I-2.249327 J-2.667051
G03 X74.036646 Y36.106961 Z-1.000000 I-1.975200 J-6.602789
G03 X72.723737 Y36.026523 Z-1.000000 I-0.000000 J-10.754917
G03 X71.459715 Y35.790011 Z-1.000000 I1.254851 J-10.202443
G03 X70.236006 Y35.395907 Z-1.000000 I2.462675 J-9.743593
G03 X69.048148 Y34.839161 Z-1.000000 I3.838484 J-9.735249
G01 X69.048148 Y37.181831 Z-1.000000
G02 X70.456805 Y37.661346 Z-1.000000 I6.636429 J-17.186800
G02 X71.749103 Y37.981091 Z-1.000000 I4.184280 J-14.140019
G02 X73.065160 Y38.190229 Z-1.000000 I2.751704 J-13.070481
G02 X74.298473 Y38.256701 Z-1.000000 I1.233313 J-11.408042
G02 X77.421424 Y37.730111 Z-1.000000 I0.000000 J-9.523655
G02 X79.300752 Y36.520371 Z-1.000000 I-1.555336 J-4.480845
G02 X80.444606 Y34.580125 Z-1.000000 I-3.602968 J-3.431392
G02 X80.954397 Y31.256261 Z-1.000000 I-10.580980 J-3.323864
G01 X80.954397 Y31.256261 Z-1.000000
G00 Z5.000000

(End cutting path id: path3727)


(Start cutting path id: path3725)
(Change tool to Default tool)

G00 Z5.000000
G00 X63.797825 Y31.766141

G01 Z-1.000000 F100.0(Penetrate)
G01 X63.797825 Y22.450601 Z-1.000000 F400.000000
G01 X61.262235 Y22.450601 Z-1.000000
G01 X61.262235 Y31.683461 Z-1.000000
G03 X60.993426 Y33.781654 Z-1.000000 I-8.323158 J0.000000
G03 X60.407851 Y34.963191 Z-1.000000 I-3.130046 J-0.815391
G03 X59.399523 Y35.735333 Z-1.000000 I-2.004421 J-1.573090
G03 X57.844700 Y36.051841 Z-1.000000 I-1.554823 J-3.660724
G03 X55.954505 Y35.684230 Z-1.000000 I0.000000 J-5.043344
G03 X54.606310 Y34.742701 Z-1.000000 I1.378458 J-3.409861
G03 X53.765165 Y33.300996 Z-1.000000 I3.002376 J-2.717930
G03 X53.421198 Y31.173581 Z-1.000000 I6.406990 J-2.127415
G01 X53.421198 Y22.450601 Z-1.000000
G01 X50.871827 Y22.450601 Z-1.000000
G01 X50.871827 Y37.884631 Z-1.000000
G01 X53.421198 Y37.884631 Z-1.000000
G01 X53.421198 Y35.486841 Z-1.000000
G02 X54.456246 Y36.744419 Z-1.000000 I6.219548 J-4.064254
G02 X55.557157 Y37.567681 Z-1.000000 I3.693231 J-3.791060
G02 X56.845645 Y38.070483 Z-1.000000 I2.494505 J-4.490102
G02 X58.409696 Y38.256701 Z-1.000000 I1.564051 J-6.475163
G02 X60.842823 Y37.776237 Z-1.000000 I0.000000 J-6.401058
G02 X62.433567 Y36.603051 Z-1.000000 I-1.545422 J-3.760517
G02 X63.376651 Y34.810902 Z-1.000000 I-3.742876 J-3.113832
G02 X63.797825 Y31.766141 Z-1.000000 I-10.795050 J-3.044761
G01 X63.797825 Y31.766141 Z-1.000000
G00 Z5.000000

(End cutting path id: path3725)


(Start cutting path id: path3723)
(Change tool to Default tool)

G00 Z5.000000
G00 X40.688125 Y21.017441

G01 Z-1.000000 F100.0(Penetrate)
G02 X39.424177 Y18.398246 Z-1.000000 I-17.441310 J6.802103 F400.000000
G02 X38.593507 Y17.420761 Z-1.000000 I-3.147375 J1.832954
G02 X37.486134 Y16.824222 Z-1.000000 I-2.061683 J2.501067
G02 X35.864992 Y16.580161 Z-1.000000 I-1.621142 J5.262086
G01 X33.839276 Y16.580161 Z-1.000000
G01 X33.839276 Y18.702341 Z-1.000000
G01 X35.327557 Y18.702341 Z-1.000000
G03 X36.320104 Y18.850377 Z-1.000000 I-0.000000 J3.401410
G03 X36.953642 Y19.198431 Z-1.000000 I-0.514979 J1.688000
G03 X37.420036 Y19.773556 Z-1.000000 I-1.339977 J1.563319
G03 X38.235217 Y21.541091 Z-1.000000 I-12.482011 J6.828406
G01 X38.689970 Y22.698651 Z-1.000000
G01 X32.447457 Y37.884631 Z-1.000000
G01 X35.134631 Y37.884631 Z-1.000000
G01 X39.957765 Y25.813011 Z-1.000000
G01 X44.780898 Y37.884631 Z-1.000000
G01 X47.468073 Y37.884631 Z-1.000000
G01 X40.688125 Y21.017441 Z-1.000000
G00 Z5.000000

(End cutting path id: path3723)


(Start cutting path id: path3721)
(Change tool to Default tool)

G00 Z5.000000
G00 X15.442465 Y40.737171

G01 Z-1.000000 F100.0(Penetrate)
G01 X15.442465 Y24.738141 Z-1.000000 F400.000000
G01 X18.804878 Y24.738141 Z-1.000000
G03 X22.815398 Y25.345019 Z-1.000000 I0.000000 J13.555087
G03 X25.033611 Y26.667401 Z-1.000000 I-1.625691 J5.248642
G03 X26.398704 Y28.858291 Z-1.000000 I-3.750277 J3.857435
G03 X27.017986 Y32.758331 Z-1.000000 I-11.970960 J3.900040
G03 X26.399259 Y36.629729 Z-1.000000 I-12.421099 J-0.000000
G03 X25.033611 Y38.807911 Z-1.000000 I-5.075125 J-1.664736
G03 X22.815398 Y40.130293 Z-1.000000 I-3.843904 J-3.926260
G03 X18.804878 Y40.737171 Z-1.000000 I-4.010520 J-12.948209
G01 X15.442465 Y40.737171 Z-1.000000
G00 Z5.000000

(End cutting path id: path3721)


(Start cutting path id: path3721)
(Change tool to Default tool)

G00 Z5.000000
G00 X12.658828 Y43.024711

G01 Z-1.000000 F100.0(Penetrate)
G01 X18.377687 Y43.024711 Z-1.000000 F400.000000
G02 X24.056869 Y42.233517 Z-1.000000 I0.000000 J-20.778142
G02 X27.155790 Y40.530461 Z-1.000000 I-2.159757 J-7.600909
G02 X29.097081 Y37.664904 Z-1.000000 I-4.641916 J-5.235046
G02 X29.953207 Y32.758331 Z-1.000000 I-13.632048 J-4.906573
G02 X29.092889 Y27.825913 Z-1.000000 I-14.569545 J0.000000
G02 X27.142009 Y24.944851 Z-1.000000 I-6.620557 J2.381998
G02 X24.031312 Y23.239426 Z-1.000000 I-5.294179 J5.966918
G02 X18.377687 Y22.450601 Z-1.000000 I-5.653625 J19.865769
G01 X12.658828 Y22.450601 Z-1.000000
G01 X12.658828 Y43.024711 Z-1.000000
G00 Z5.000000

(End cutting path id: path3721)


(Footer)
M5
G00 X0.0000 Y0.0000
M2
(Using default footer. To add your own footer create file "footer" in the output dir.)
(end)
%