%
(Header)
(Generated by gcodetools from Inkscape.)
(Using default header. To add your own header create file "header" in the output dir.)
M3
(Header end.)
G21 (All units in mm)

(Start cutting path id: path394)
(Change tool to Default tool)

G00 Z5.000000
G00 X51.259604 Y32.632710

G01 Z-1.000000 F100.0(Penetrate)
G02 X50.117519 Y34.584957 Z-1.000000 I1.749431 J2.333624 F400.000000
G02 X50.744213 Y36.540290 Z-1.000000 I2.383057 J0.314314
G02 X53.492082 Y37.021663 Z-1.000000 I1.693241 J-1.582042
G02 X54.477878 Y34.632030 Z-1.000000 I-0.905537 J-1.771713
G03 X54.627160 Y34.512221 Z-1.000000 I0.097226 J-0.031764
G03 X55.429581 Y35.194710 Z-1.000000 I-1.576615 J2.666626
G03 X56.280944 Y37.636314 Z-1.000000 I-2.821346 J2.353008
G03 X55.259136 Y42.260430 Z-1.000000 I-12.318730 J-0.297161
G02 X53.842136 Y45.556159 Z-1.000000 I343.756992 J149.750921
G02 X53.128803 Y47.281310 Z-1.000000 I93.492924 J39.668470
G03 X52.214007 Y48.738833 Z-1.000000 I-4.517455 J-1.819484
G03 X51.411338 Y49.169460 Z-1.000000 I-1.009469 J-0.918221
G02 X50.657709 Y49.586850 Z-1.000000 I0.188560 J1.229520
G02 X50.230312 Y50.539660 Z-1.000000 I1.384300 J1.193212
G02 X50.664249 Y51.232210 Z-1.000000 I0.635110 J0.084276
G02 X53.900469 Y51.753480 Z-1.000000 I3.236220 J-9.785141
G02 X57.484506 Y51.402254 Z-1.000000 I0.000000 J-18.461991
G02 X58.024288 Y50.937400 Z-1.000000 I-0.140242 J-0.708669
G02 X58.093039 Y50.156896 Z-1.000000 I-1.454187 J-0.521372
G02 X57.764140 Y49.408490 Z-1.000000 I-1.657821 J0.282083
G03 X57.541176 Y48.644499 Z-1.000000 I0.857225 J-0.664705
G03 X58.036232 Y46.448250 Z-1.000000 I8.643960 J0.794516
G03 X58.958910 Y44.340976 Z-1.000000 I17.725640 J6.505601
G03 X59.188214 Y44.200840 Z-1.000000 I0.229304 J0.117537
G03 X59.427512 Y44.337196 Z-1.000000 I-0.000000 J0.278157
G03 X60.586523 Y46.560580 Z-1.000000 I-19.831894 J11.751792
G03 X61.308225 Y48.862959 Z-1.000000 I-9.000357 J4.085549
G03 X61.124081 Y49.491420 Z-1.000000 I-0.716188 J0.131359
G02 X61.193141 Y50.805739 Z-1.000000 I0.667739 J0.623888
G02 X63.732796 Y51.753480 Z-1.000000 I2.539655 J-2.928877
G02 X65.835310 Y51.319946 Z-1.000000 I-0.000000 J-5.315059
G02 X66.268846 Y50.661180 Z-1.000000 I-0.283736 J-0.658766
G02 X65.977165 Y49.764183 Z-1.000000 I-1.525093 J0.000000
G02 X65.134741 Y49.101730 Z-1.000000 I-1.592269 J1.157974
G03 X64.291820 Y48.340972 Z-1.000000 I0.642020 J-1.558716
G03 X60.780005 Y40.997890 Z-1.000000 I76.309283 J-41.006075
G02 X57.225004 Y33.661742 Z-1.000000 I-72.059824 J30.389819
G02 X56.142606 Y32.577050 Z-1.000000 I-2.420506 J1.332985
G02 X53.434776 Y31.894131 Z-1.000000 I-2.645537 J4.779925
G02 X51.259604 Y32.632750 Z-1.000000 I0.042149 J3.696284
G01 X51.259604 Y32.632710 Z-1.000000
G00 Z5.000000

(End cutting path id: path394)


(Start cutting path id: path394)
(Change tool to Default tool)

G00 Z5.000000
G00 X52.874018 Y34.355420

G01 Z-1.000000 F100.0(Penetrate)
G03 X52.422543 Y35.515549 Z-1.000000 I-2.010303 J-0.114416 F400.000000
G03 X51.890804 Y35.557940 Z-1.000000 I-0.286216 J-0.234019
G03 X51.588768 Y34.841720 Z-1.000000 I0.599072 J-0.674430
G03 X51.968924 Y33.873460 Z-1.000000 I1.613782 J0.074842
G03 X52.541139 Y33.763536 Z-1.000000 I0.354200 J0.299495
G03 X52.874018 Y34.355420 Z-1.000000 I-0.296114 J0.556085
G01 X52.874018 Y34.355420 Z-1.000000
G00 Z5.000000

(End cutting path id: path394)


(Start cutting path id: path394)
(Change tool to Default tool)

G00 Z5.000000
G00 X57.469795 Y44.386040

G01 Z-1.000000 F100.0(Penetrate)
G02 X55.872655 Y48.400574 Z-1.000000 I45.096904 J20.266290 F400.000000
G02 X55.683869 Y49.517320 Z-1.000000 I3.208599 J1.116746
G03 X55.326775 Y50.317433 Z-1.000000 I-1.074923 J-0.000000
G03 X54.394005 Y50.674530 Z-1.000000 I-0.932770 J-1.039692
G03 X53.398043 Y50.494603 Z-1.000000 I-0.000000 J-2.846478
G03 X53.310733 Y50.269920 Z-1.000000 I0.056496 J-0.151259
G02 X55.683718 Y45.225508 Z-1.000000 I-76.654494 J-39.140049
G02 X57.791198 Y39.885040 Z-1.000000 I-83.824785 J-36.165388
G03 X58.328713 Y39.317268 Z-1.000000 I0.915515 J0.328405
G03 X58.765355 Y39.474150 Z-1.000000 I0.133114 J0.315593
G03 X58.872066 Y40.423363 Z-1.000000 I-1.170878 J0.612236
G03 X57.469795 Y44.386040 Z-1.000000 I-24.741532 J-6.525831
G01 X57.469795 Y44.386040 Z-1.000000
G00 Z5.000000

(End cutting path id: path394)


(Start cutting path id: path394)
(Change tool to Default tool)

G00 Z5.000000
G00 X87.576042 Y37.619580

G01 Z-1.000000 F100.0(Penetrate)
G02 X85.508079 Y42.444118 Z-1.000000 I1.120883 J3.335918 F400.000000
G02 X91.655663 Y46.358740 Z-1.000000 I6.147584 J-2.869820
G03 X92.607691 Y46.734359 Z-1.000000 I-0.000000 J1.394294
G03 X92.983312 Y47.599530 Z-1.000000 I-0.808567 J0.865171
G03 X92.308610 Y49.460353 Z-1.000000 I-2.903420 J-0.000000
G03 X90.866316 Y50.135060 Z-1.000000 I-1.442294 J-1.204214
G03 X90.272653 Y49.821438 Z-1.000000 I0.000000 J-0.718691
G03 X89.959032 Y48.805360 Z-1.000000 I1.489149 J-1.016078
G02 X89.066962 Y47.071479 Z-1.000000 I-2.131074 J-0.000000
G02 X87.032937 Y46.714420 Z-1.000000 I-1.389756 J1.944845
G02 X85.426156 Y48.917839 Z-1.000000 I0.593445 J2.120312
G02 X87.220180 Y51.671610 Z-1.000000 I3.195776 J-0.120711
G02 X91.147343 Y52.521848 Z-1.000000 I3.696922 J-7.581003
G02 X95.046182 Y51.457900 Z-1.000000 I-0.232914 J-8.529135
G02 X96.631959 Y49.565559 Z-1.000000 I-1.662472 J-3.003756
G02 X97.519730 Y44.228640 Z-1.000000 I-15.597806 J-5.336919
G03 X97.940534 Y40.869549 Z-1.000000 I13.617469 J0.000000
G03 X98.527823 Y40.268200 Z-1.000000 I0.813559 J0.207084
G03 X99.535916 Y40.129787 Z-1.000000 I1.008093 J3.601869
G03 X100.544010 Y40.268200 Z-1.000000 I-0.000000 J3.740295
G03 X101.122020 Y40.876584 Z-1.000000 I-0.220670 J0.788421
G03 X101.552100 Y44.740310 Z-1.000000 I-17.140310 J3.863726
G03 X101.122020 Y48.604036 Z-1.000000 I-17.570390 J-0.000000
G03 X100.544010 Y49.212420 Z-1.000000 I-0.798680 J-0.180036
G02 X99.817694 Y49.708308 Z-1.000000 I0.369906 J1.321647
G02 X99.535916 Y50.550700 Z-1.000000 I1.118303 J0.842392
G02 X99.937847 Y51.259558 Z-1.000000 I0.826048 J-0.000000
G02 X101.874470 Y51.949890 Z-1.000000 I2.699894 J-4.512531
G02 X105.138201 Y51.977628 Z-1.000000 I1.732343 J-11.808781
G02 X105.584480 Y51.469890 Z-1.000000 I-0.065690 J-0.507738
G03 X105.889723 Y51.164647 Z-1.000000 I0.305243 J0.000000
G03 X107.071590 Y51.469890 Z-1.000000 I-0.000000 J2.440652
G02 X108.605695 Y52.110979 Z-1.000000 I3.678120 J-6.645544
G02 X109.868870 Y52.292960 Z-1.000000 I1.263175 J-4.293017
G02 X111.132050 Y52.110980 Z-1.000000 I0.000000 J-4.475043
G02 X112.666160 Y51.469890 Z-1.000000 I-2.143990 J-7.286597
G03 X114.153266 Y51.101035 Z-1.000000 I1.430278 J2.584233
G03 X115.747440 Y51.529190 Z-1.000000 I-0.065958 J3.427503
G02 X119.544915 Y52.187364 Z-1.000000 I2.847459 J-5.144760
G02 X122.595260 Y50.408110 Z-1.000000 I-0.797563 J-4.871713
G02 X123.323267 Y48.852743 Z-1.000000 I-2.824843 J-2.270260
G02 X123.730150 Y44.767990 Z-1.000000 I-20.300270 J-4.084753
G03 X124.061538 Y40.762130 Z-1.000000 I24.377398 J-0.000000
G03 X124.486220 Y40.229460 Z-1.000000 I0.690728 J0.115069
G02 X125.006234 Y39.760699 Z-1.000000 I-0.394397 J-0.960334
G02 X125.242290 Y38.823060 Z-1.000000 I-1.744169 J-0.937639
G02 X124.767481 Y38.201990 Z-1.000000 I-0.643597 J0.000000
G02 X121.209920 Y37.727180 Z-1.000000 I-3.557561 J13.090289
G02 X117.664673 Y38.214316 Z-1.000000 I0.000000 J13.144246
G02 X117.177550 Y38.856630 Z-1.000000 I0.179912 J0.642314
G02 X117.468686 Y39.765254 Z-1.000000 I1.563461 J0.000000
G02 X118.185640 Y40.268240 Z-1.000000 I1.072003 J-0.765565
G03 X118.763154 Y40.877008 Z-1.000000 I-0.220383 J0.787385
G03 X119.193730 Y44.771440 Z-1.000000 I-17.396720 J3.894432
G03 X118.280887 Y48.792969 Z-1.000000 I-9.314849 J0.000000
G03 X116.983290 Y49.389610 Z-1.000000 I-1.007755 J-0.482351
G03 X115.534867 Y48.091868 Z-1.000000 I0.559051 J-2.081133
G03 X114.657320 Y43.429200 Z-1.000000 I11.948294 J-4.662668
G03 X115.057969 Y40.854302 Z-1.000000 I8.474529 J0.000000
G03 X115.665410 Y40.268240 Z-1.000000 I0.847077 J0.270147
G02 X116.382364 Y39.765254 Z-1.000000 I-0.355049 J-1.268551
G02 X116.673500 Y38.856630 Z-1.000000 I-1.272325 J-0.908624
G02 X116.186369 Y38.214308 Z-1.000000 I-0.667042 J0.000000
G02 X112.641130 Y37.727180 Z-1.000000 I-3.545239 J12.657274
G02 X109.083560 Y38.201998 Z-1.000000 I-0.000000 J13.564927
G02 X108.608760 Y38.823060 Z-1.000000 I0.168789 J0.621062
G02 X108.844816 Y39.760699 Z-1.000000 I1.980225 J0.000000
G02 X109.364830 Y40.229460 Z-1.000000 I0.914410 J-0.491573
G03 X109.786661 Y40.764046 Z-1.000000 I-0.263557 J0.641690
G03 X110.120900 Y45.067810 Z-1.000000 I-27.541159 J4.303764
G03 X109.587396 Y49.062082 Z-1.000000 I-15.219039 J-0.000000
G03 X108.889360 Y49.595620 Z-1.000000 I-0.698036 J-0.189857
G03 X107.164569 Y48.519583 Z-1.000000 I0.000000 J-1.920361
G03 X106.088520 Y43.874020 Z-1.000000 I9.489984 J-4.645563
G03 X106.515733 Y40.874445 Z-1.000000 I10.744005 J-0.000000
G03 X107.140450 Y40.255970 Z-1.000000 I0.868496 J0.252512
G02 X107.849931 Y39.747372 Z-1.000000 I-0.343978 J-1.228995
G02 X108.013540 Y38.979230 Z-1.000000 I-0.852708 J-0.583116
G02 X107.456298 Y38.444422 Z-1.000000 I-0.648587 J0.118081
G02 X100.282990 Y37.897660 Z-1.000000 I-7.925026 J56.644444
G03 X92.738740 Y37.699368 Z-1.000000 I3.776938 J-287.312548
G03 X90.715102 Y37.520370 Z-1.000000 I0.820213 J-20.801252
G02 X88.715109 Y37.414844 Z-1.000000 I-1.624236 J11.778177
G02 X87.576042 Y37.619670 Z-1.000000 I0.125443 J3.967275
G01 X87.576042 Y37.619580 Z-1.000000
G00 Z5.000000

(End cutting path id: path394)


(Start cutting path id: path394)
(Change tool to Default tool)

G00 Z5.000000
G00 X87.832566 Y39.873560

G01 Z-1.000000 F100.0(Penetrate)
G02 X87.524687 Y40.970920 Z-1.000000 I1.953781 J1.140030 F400.000000
G02 X87.781816 Y42.563300 Z-1.000000 I4.530011 J0.085467
G03 X87.782689 Y43.500193 Z-1.000000 I-1.331805 J0.469688
G03 X87.403876 Y43.641360 Z-1.000000 I-0.248126 J-0.086987
G03 X85.786643 Y41.955439 Z-1.000000 I2.057936 J-3.592724
G03 X85.835823 Y40.619080 Z-1.000000 I1.204179 J-0.624769
G03 X87.032644 Y39.331565 Z-1.000000 I3.828188 J2.358512
G03 X88.325153 Y38.822490 Z-1.000000 I1.643356 J2.277037
G01 X88.359386 Y38.869565 Z-1.000000
G03 X87.832568 Y39.873560 Z-1.000000 I-11.418464 J-5.351305
G01 X87.832566 Y39.873560 Z-1.000000
G00 Z5.000000

(End cutting path id: path394)


(Start cutting path id: path394)
(Change tool to Default tool)

G00 Z5.000000
G00 X96.477387 Y43.256140

G01 Z-1.000000 F100.0(Penetrate)
G03 X95.493215 Y48.845052 Z-1.000000 I-25.774401 J-1.657598 F400.000000
G03 X94.460783 Y50.154910 Z-1.000000 I-2.141229 J-0.625910
G03 X94.082091 Y50.013512 Z-1.000000 I-0.130607 J-0.228014
G03 X94.071861 Y49.040970 Z-1.000000 I1.436188 J-0.501433
G02 X94.391478 Y47.369267 Z-1.000000 I-6.440492 J-2.097778
G02 X94.410338 Y43.670750 Z-1.000000 I-31.924062 J-2.012101
G03 X94.652101 Y40.194381 Z-1.000000 I14.276718 J-0.753722
G03 X95.236596 Y39.411460 Z-1.000000 I1.103288 J0.214027
G03 X96.270324 Y38.912197 Z-1.000000 I8.870562 J17.046785
G03 X96.511637 Y38.841980 Z-1.000000 I0.375512 J0.840742
G03 X96.632539 Y38.947212 Z-1.000000 I0.015367 J0.104414
G03 X96.477407 Y43.256140 Z-1.000000 I-76.379914 J-0.592609
G01 X96.477387 Y43.256140 Z-1.000000
G00 Z5.000000

(End cutting path id: path394)


(Start cutting path id: path394)
(Change tool to Default tool)

G00 Z5.000000
G00 X104.742850 Y44.786710

G01 Z-1.000000 F100.0(Penetrate)
G03 X104.568610 Y50.732032 Z-1.000000 I-198.491888 J-2.841994 F400.000000
G03 X104.468810 Y50.969480 Z-1.000000 I-0.371542 J-0.016463
G03 X104.248321 Y51.057196 Z-1.000000 I-0.203230 J-0.189877
G03 X103.294250 Y50.896380 Z-1.000000 I0.286709 J-4.611457
G03 X102.762853 Y50.285738 Z-1.000000 I0.197396 J-0.708319
G03 X102.465630 Y44.713830 Z-1.000000 I34.628011 J-4.641045
G03 X103.109007 Y39.305014 Z-1.000000 I29.715586 J0.791986
G03 X103.725740 Y38.805850 Z-1.000000 I0.616858 J0.131570
G03 X104.319692 Y39.307227 Z-1.000000 I0.000112 J0.602366
G03 X104.742850 Y44.786690 Z-1.000000 I-29.687613 J5.048729
G01 X104.742850 Y44.786710 Z-1.000000
G00 Z5.000000

(End cutting path id: path394)


(Start cutting path id: path394)
(Change tool to Default tool)

G00 Z5.000000
G00 X113.649220 Y43.347500

G01 Z-1.000000 F100.0(Penetrate)
G03 X113.058589 Y48.926322 Z-1.000000 I-26.642775 J-0.000000 F400.000000
G03 X112.203790 Y50.097420 Z-1.000000 I-1.740135 J-0.372634
G03 X111.774380 Y49.890223 Z-1.000000 I-0.143750 J-0.250650
G03 X111.381010 Y44.688500 Z-1.000000 I34.195785 J-5.201723
G03 X111.893855 Y39.320173 Z-1.000000 I28.353538 J0.000000
G03 X112.515120 Y38.806890 Z-1.000000 I0.621711 J0.119880
G03 X113.151864 Y39.303803 Z-1.000000 I0.000453 J0.655839
G03 X113.649220 Y43.347500 Z-1.000000 I-16.189748 J4.043697
G01 X113.649220 Y43.347500 Z-1.000000
G00 Z5.000000

(End cutting path id: path394)


(Start cutting path id: path394)
(Change tool to Default tool)

G00 Z5.000000
G00 X122.305130 Y43.789870

G01 Z-1.000000 F100.0(Penetrate)
G03 X121.350930 Y49.137493 Z-1.000000 I-18.979634 J-0.627678 F400.000000
G03 X119.991260 Y50.770020 Z-1.000000 I-2.757393 J-0.914056
G03 X119.618541 Y50.804697 Z-1.000000 I-0.226340 J-0.412388
G03 X119.571770 Y50.632670 Z-1.000000 I0.033200 J-0.101398
G02 X119.928525 Y49.815858 Z-1.000000 I-1.089424 J-0.962138
G02 X120.201830 Y44.362680 Z-1.000000 I-54.266216 J-5.453178
G03 X120.711564 Y39.315242 Z-1.000000 I25.245003 J-0.000000
G03 X121.335930 Y38.804850 Z-1.000000 I0.625061 J0.127549
G03 X121.948215 Y39.309090 Z-1.000000 I0.000563 J0.623177
G03 X122.305130 Y43.789870 Z-1.000000 I-19.643660 J3.819314
G01 X122.305130 Y43.789870 Z-1.000000
G00 Z5.000000

(End cutting path id: path394)


(Start cutting path id: path394)
(Change tool to Default tool)

G00 Z5.000000
G00 X92.378456 Y40.532410

G01 Z-1.000000 F100.0(Penetrate)
G03 X92.783617 Y41.258547 Z-1.000000 I-1.264993 J1.181928 F400.000000
G03 X92.983312 Y42.748790 Z-1.000000 I-5.460697 J1.490243
G03 X92.534035 Y43.731910 Z-1.000000 I-1.300284 J0.000000
G03 X91.600001 Y43.946210 Z-1.000000 I-0.668893 J-0.772734
G03 X90.275457 Y43.465607 Z-1.000000 I2.136577 J-7.953937
G03 X89.583815 Y43.012460 Z-1.000000 I1.191951 J-2.573690
G03 X88.842958 Y41.574244 Z-1.000000 I1.490046 J-1.677479
G03 X89.286972 Y40.244690 Z-1.000000 I1.674766 J-0.179618
G03 X90.698299 Y39.708186 Z-1.000000 I1.252484 J1.170214
G03 X92.378456 Y40.532410 Z-1.000000 I-0.244030 J2.622036
G01 X92.378456 Y40.532410 Z-1.000000
G00 Z5.000000

(End cutting path id: path394)


(Start cutting path id: path394)
(Change tool to Default tool)

G00 Z5.000000
G00 X88.670805 Y48.467960

G01 Z-1.000000 F100.0(Penetrate)
G03 X88.684112 Y49.949580 Z-1.000000 I-1.303264 J0.752574 F400.000000
G03 X87.649108 Y50.313010 Z-1.000000 I-0.721623 J-0.399596
G03 X86.717651 Y48.915767 Z-1.000000 I0.570706 J-1.389549
G03 X87.661078 Y47.977160 Z-1.000000 I0.943427 J0.004832
G03 X88.302210 Y48.124724 Z-1.000000 I0.000000 J1.466573
G03 X88.670809 Y48.467960 Z-1.000000 I-0.375765 J0.773067
G01 X88.670805 Y48.467960 Z-1.000000
G00 Z5.000000

(End cutting path id: path394)


(Start cutting path id: path394)
(Change tool to Default tool)

G00 Z5.000000
G00 X138.454540 Y38.231450

G01 Z-1.000000 F100.0(Penetrate)
G02 X135.333801 Y42.019225 Z-1.000000 I2.698978 J5.403154 F400.000000
G02 X135.614330 Y48.463890 Z-1.000000 I10.054344 J2.790784
G02 X137.884851 Y51.083530 Z-1.000000 I4.653813 J-1.739816
G02 X142.618380 Y52.292960 Z-1.000000 I4.733529 J-8.658448
G02 X146.866055 Y50.735664 Z-1.000000 I0.000000 J-6.571620
G02 X147.680550 Y48.004760 Z-1.000000 I-1.685393 J-1.989584
G02 X145.275463 Y46.533289 Z-1.000000 I-2.018983 J0.598716
G02 X143.387970 Y48.805360 Z-1.000000 I0.423757 J2.272071
G03 X142.459829 Y49.799583 Z-1.000000 I-0.996575 J0.000000
G03 X140.567820 Y48.999470 Z-1.000000 I-0.156105 J-2.267915
G03 X139.932127 Y47.745078 Z-1.000000 I2.326755 J-1.967410
G03 X139.607620 Y45.010050 Z-1.000000 I11.363493 J-2.735028
G03 X141.985702 Y40.781737 Z-1.000000 I4.948085 J-0.000000
G03 X145.626130 Y41.351950 Z-1.000000 I1.482761 J2.439520
G02 X147.164111 Y41.794514 Z-1.000000 I1.109186 J-0.960954
G02 X147.845640 Y40.673860 Z-1.000000 I-0.288015 J-0.942721
G02 X144.943107 Y37.551494 Z-1.000000 I-3.900770 J0.715861
G02 X138.454540 Y38.231450 Z-1.000000 I-2.337902 J8.989248
G01 X138.454540 Y38.231450 Z-1.000000
G00 Z5.000000

(End cutting path id: path394)


(Start cutting path id: path394)
(Change tool to Default tool)

G00 Z5.000000
G00 X139.392180 Y40.227530

G01 Z-1.000000 F100.0(Penetrate)
G02 X137.815398 Y44.818605 Z-1.000000 I6.555111 J4.817626 F400.000000
G02 X139.134430 Y49.479030 Z-1.000000 I8.095764 J0.225545
G03 X139.104580 Y49.961477 Z-1.000000 I-0.338050 J0.221231
G03 X138.643450 Y50.058320 Z-1.000000 I-0.292862 J-0.248217
G03 X137.629687 Y49.198789 Z-1.000000 I1.179558 J-2.418815
G03 X136.524220 Y47.077350 Z-1.000000 I7.104985 J-5.051103
G03 X136.139013 Y44.732342 Z-1.000000 I6.253356 J-2.231361
G03 X136.601920 Y42.538390 Z-1.000000 I5.910108 J0.101176
G03 X137.744787 Y40.554054 Z-1.000000 I8.545277 J3.600321
G03 X138.816290 Y39.603250 Z-1.000000 I2.897033 J2.185630
G03 X140.087413 Y38.901675 Z-1.000000 I16.036460 J27.552761
G03 X140.209900 Y38.922960 Z-1.000000 I0.047348 J0.090604
G03 X140.219574 Y39.045569 Z-1.000000 I-0.073119 J0.067455
G03 X139.392210 Y40.227530 Z-1.000000 I-26.024470 J-17.336384
G01 X139.392180 Y40.227530 Z-1.000000
G00 Z5.000000

(End cutting path id: path394)


(Start cutting path id: path394)
(Change tool to Default tool)

G00 Z5.000000
G00 X146.412250 Y48.998390

G01 Z-1.000000 F100.0(Penetrate)
G03 X145.646687 Y50.187635 Z-1.000000 I-1.306483 J0.000000 F400.000000
G03 X144.688160 Y49.782570 Z-1.000000 I-0.292807 J-0.643754
G03 X144.790988 Y48.505069 Z-1.000000 I1.464350 J-0.525021
G03 X145.685920 Y47.977160 Z-1.000000 I0.894932 J0.494607
G03 X146.165063 Y48.224350 Z-1.000000 I0.000000 J0.587970
G03 X146.412250 Y48.998390 Z-1.000000 I-1.088316 J0.774040
G01 X146.412250 Y48.998390 Z-1.000000
G00 Z5.000000

(End cutting path id: path394)


(Start cutting path id: path394)
(Change tool to Default tool)

G00 Z5.000000
G00 X149.156950 Y37.879180

G01 Z-1.000000 F100.0(Penetrate)
G02 X148.996636 Y38.700477 Z-1.000000 I2.609890 J0.935736 F400.000000
G02 X149.026690 Y41.032480 Z-1.000000 I21.517163 J0.888889
G02 X150.167583 Y42.904493 Z-1.000000 I2.367125 J-0.158974
G02 X151.398730 Y42.464630 Z-1.000000 I0.436091 J-0.722290
G03 X152.895548 Y40.522646 Z-1.000000 I3.724929 J1.323213
G03 X155.035300 Y39.983100 Z-1.000000 I1.804815 J2.644875
G03 X155.884848 Y41.487663 Z-1.000000 I-0.110939 J1.054770
G03 X153.468360 Y43.329140 Z-1.000000 I-2.969653 J-1.390680
G02 X149.457076 Y46.352035 Z-1.000000 I0.924026 J5.399021
G02 X149.895730 Y50.749630 Z-1.000000 I3.820826 J1.839553
G02 X151.099327 Y51.557906 Z-1.000000 I1.774455 J-1.342056
G02 X155.188210 Y52.154640 Z-1.000000 I4.637239 J-17.467748
G01 X159.517460 Y52.286070 Z-1.000000
G01 X159.517460 Y49.592140 Z-1.000000
G02 X159.146598 Y47.270517 Z-1.000000 I-7.452191 J0.000000
G02 X158.635370 Y46.901630 Z-1.000000 I-0.509152 J0.166926
G02 X157.921541 Y47.183877 Z-1.000000 I0.004348 J1.054791
G02 X156.894650 Y48.520050 Z-1.000000 I3.459612 J3.721506
G03 X155.803071 Y49.747384 Z-1.000000 I-3.072404 J-1.633481
G03 X154.562150 Y50.135060 Z-1.000000 I-1.240921 J-1.792205
G03 X153.210514 Y49.885622 Z-1.000000 I0.000000 J-3.786791
G03 X152.467730 Y49.334780 Z-1.000000 I0.611857 J-1.601285
G03 X152.591785 Y48.637306 Z-1.000000 I0.377398 J-0.292645
G03 X156.431470 Y46.854260 Z-1.000000 I9.047479 J14.457430
G02 X158.405600 Y45.938777 Z-1.000000 I-2.687833 J-8.382221
G02 X159.299980 Y45.063280 Z-1.000000 I-1.542223 J-2.470069
G02 X160.232440 Y41.680910 Z-1.000000 I-4.804557 J-3.144249
G02 X159.041520 Y38.836180 Z-1.000000 I-4.432498 J0.183976
G02 X156.487674 Y37.369714 Z-1.000000 I-3.663385 J3.422784
G02 X153.094170 Y37.486520 Z-1.000000 I-1.475035 J6.499831
G03 X151.560233 Y37.699320 Z-1.000000 I-1.451872 J-4.830622
G03 X150.322860 Y37.441420 Z-1.000000 I0.054666 J-3.359615
G02 X149.600875 Y37.428600 Z-1.000000 I-0.377183 J0.905461
G02 X149.156950 Y37.879210 Z-1.000000 I0.264578 J0.704628
G01 X149.156950 Y37.879180 Z-1.000000
G00 Z5.000000

(End cutting path id: path394)


(Start cutting path id: path394)
(Change tool to Default tool)

G00 Z5.000000
G00 X155.107050 Y38.623900

G01 Z-1.000000 F100.0(Penetrate)
G03 X154.476990 Y38.754134 Z-1.000000 I-0.630060 J-1.458969 F400.000000
G03 X153.846930 Y38.623900 Z-1.000000 I0.000000 J-1.589203
G03 X153.846930 Y38.482031 Z-1.000000 I0.030635 J-0.070934
G03 X154.476990 Y38.351790 Z-1.000000 I0.630060 J1.458881
G03 X155.107050 Y38.482031 Z-1.000000 I0.000000 J1.589123
G03 X155.107050 Y38.623900 Z-1.000000 I-0.030635 J0.070934
G01 X155.107050 Y38.623900 Z-1.000000
G00 Z5.000000

(End cutting path id: path394)


(Start cutting path id: path394)
(Change tool to Default tool)

G00 Z5.000000
G00 X151.029210 Y40.082910

G01 Z-1.000000 F100.0(Penetrate)
G02 X150.633625 Y40.722418 Z-1.000000 I3.802857 J2.794462 F400.000000
G02 X150.300070 Y41.503460 Z-1.000000 I5.356046 J2.749123
G03 X150.146663 Y41.503387 Z-1.000000 I-0.076691 J-0.026527
G03 X149.980370 Y40.576310 Z-1.000000 I2.891615 J-0.997133
G03 X150.269178 Y39.318208 Z-1.000000 I2.622864 J-0.060099
G03 X150.709500 Y39.155760 Z-1.000000 I0.308555 J0.158372
G03 X151.106241 Y39.576054 Z-1.000000 I-0.266560 J0.649024
G03 X151.029210 Y40.082910 Z-1.000000 I-0.521889 J0.179965
G01 X151.029210 Y40.082910 Z-1.000000
G00 Z5.000000

(End cutting path id: path394)


(Start cutting path id: path394)
(Change tool to Default tool)

G00 Z5.000000
G00 X158.750690 Y41.503460

G01 Z-1.000000 F100.0(Penetrate)
G03 X158.185767 Y43.565720 Z-1.000000 I-2.207923 J0.503681 F400.000000
G03 X154.477330 Y46.008290 Z-1.000000 I-7.086047 J-6.721950
G02 X151.610059 Y47.526081 Z-1.000000 I4.206808 J11.414305
G02 X150.944440 Y48.533620 Z-1.000000 I0.980079 J1.371114
G03 X150.593388 Y48.973365 Z-1.000000 I-0.623505 J-0.137752
G03 X150.283960 Y48.845220 Z-1.000000 I-0.096521 J-0.204589
G03 X150.557811 Y46.567671 Z-1.000000 I2.410334 J-0.865421
G03 X152.845220 Y44.970170 Z-1.000000 I3.160409 J2.088902
G02 X156.927254 Y43.383060 Z-1.000000 I-3.661141 J-15.459464
G02 X157.827260 Y42.189330 Z-1.000000 I-0.902206 J-1.616354
G02 X157.900726 Y40.836681 Z-1.000000 I-3.764530 J-0.882780
G02 X157.518680 Y39.668750 Z-1.000000 I-3.158236 J0.386649
G03 X157.505595 Y39.373082 Z-1.000000 I0.287217 J-0.160834
G03 X157.663790 Y39.345560 Z-1.000000 I0.088396 J0.039689
G03 X158.294272 Y40.235155 Z-1.000000 I-2.628499 J2.531112
G03 X158.750690 Y41.503460 Z-1.000000 I-4.980173 J2.508464
G01 X158.750690 Y41.503460 Z-1.000000
G00 Z5.000000

(End cutting path id: path394)


(Start cutting path id: path394)
(Change tool to Default tool)

G00 Z5.000000
G00 X158.509360 Y49.865320

G01 Z-1.000000 F100.0(Penetrate)
G03 X158.333187 Y50.498350 Z-1.000000 I-1.225398 J0.000000 F400.000000
G03 X158.021130 Y50.674530 Z-1.000000 I-0.312057 J-0.188274
G03 X157.790292 Y50.493384 Z-1.000000 I0.000000 J-0.237654
G03 X157.823040 Y49.865320 Z-1.000000 I1.060460 J-0.259592
G03 X158.169496 Y49.136143 Z-1.000000 I3.832561 J1.374080
G03 X158.311270 Y49.056100 Z-1.000000 I0.141774 J0.085536
G03 X158.422262 Y49.143199 Z-1.000000 I0.000000 J0.114269
G03 X158.509360 Y49.865320 Z-1.000000 I-2.949962 J0.722121
G01 X158.509360 Y49.865320 Z-1.000000
G00 Z5.000000

(End cutting path id: path394)


(Start cutting path id: path394)
(Change tool to Default tool)

G00 Z5.000000
G00 X26.540125 Y38.940960

G01 Z-1.000000 F100.0(Penetrate)
G02 X27.014630 Y39.838377 Z-1.000000 I1.449711 J-0.192373 F400.000000
G02 X28.087322 Y40.325480 Z-1.000000 I1.313450 J-1.467776
G01 X29.473450 Y40.496180 Z-1.000000
G01 X29.473450 Y48.552470 Z-1.000000
G01 X29.473450 Y56.608760 Z-1.000000
G01 X27.961310 Y56.608760 Z-1.000000
G02 X26.866480 Y57.026066 Z-1.000000 I0.000000 J1.644832
G02 X26.449171 Y57.957440 Z-1.000000 I0.830692 J0.931374
G01 X26.449171 Y59.306130 Z-1.000000
G01 X33.442450 Y59.306130 Z-1.000000
G02 X42.682786 Y58.351133 Z-1.000000 I-0.000000 J-45.181207
G02 X45.775113 Y56.729420 Z-1.000000 I-1.305530 J-6.248545
G02 X49.418807 Y48.391287 Z-1.000000 I-8.072515 J-8.492819
G02 X45.991291 Y40.355770 Z-1.000000 I-10.798796 J-0.142574
G02 X42.800606 Y38.680696 Z-1.000000 I-4.647730 J4.976659
G02 X33.991001 Y37.727140 Z-1.000000 I-8.809605 J40.217802
G02 X27.022716 Y38.291017 Z-1.000000 I-0.000000 J43.338322
G02 X26.540125 Y38.940960 Z-1.000000 I0.093429 J0.573509
G01 X26.540125 Y38.940960 Z-1.000000
G00 Z5.000000

(End cutting path id: path394)


(Start cutting path id: path394)
(Change tool to Default tool)

G00 Z5.000000
G00 X33.001775 Y48.223270

G01 Z-1.000000 F100.0(Penetrate)
G01 X33.001775 Y57.640440 Z-1.000000 F400.000000
G01 X36.656113 Y57.826620 Z-1.000000
G01 X36.657123 Y57.925612 Z-1.000000
G03 X33.757845 Y58.033650 Z-1.000000 I-3.034839 J-42.485884
G03 X28.848293 Y57.943276 Z-1.000000 I-0.362788 J-113.692596
G03 X28.843392 Y57.836930 Z-1.000000 I0.002137 J-0.053385
G01 X30.481543 Y57.619350 Z-1.000000
G01 X30.481543 Y48.212720 Z-1.000000
G01 X30.481543 Y38.806090 Z-1.000000
G01 X31.741659 Y38.806090 Z-1.000000
G01 X33.001775 Y38.806090 Z-1.000000
G01 X33.001775 Y48.223270 Z-1.000000
G00 Z5.000000

(End cutting path id: path394)


(Start cutting path id: path394)
(Change tool to Default tool)

G00 Z5.000000
G00 X44.683664 Y41.174660

G01 Z-1.000000 F100.0(Penetrate)
G03 X48.006694 Y49.419889 Z-1.000000 I-6.125732 J7.261067 F400.000000
G03 X43.064734 Y56.717710 Z-1.000000 I-9.287927 J-0.967410
G03 X41.235089 Y57.561500 Z-1.000000 I-9.024673 J-17.163231
G03 X40.859311 Y57.630114 Z-1.000000 I-0.357539 J-0.894814
G03 X40.814922 Y57.521600 Z-1.000000 I0.001208 J-0.063830
G03 X41.822590 Y56.694210 Z-1.000000 I4.317965 J4.231487
G02 X43.858473 Y54.310025 Z-1.000000 I-3.057165 J-4.671873
G02 X44.992778 Y49.636460 Z-1.000000 I-11.984366 J-5.383119
G02 X44.259084 Y42.929325 Z-1.000000 I-20.759390 J-1.122826
G02 X42.400684 Y40.341040 Z-1.000000 I-4.466183 J1.245427
G03 X41.941229 Y39.803242 Z-1.000000 I0.755401 J-1.110520
G03 X42.074613 Y39.649380 Z-1.000000 I0.100682 J-0.047465
G03 X43.261739 Y40.170454 Z-1.000000 I-1.653681 J5.380277
G03 X44.683664 Y41.174700 Z-1.000000 I-5.121664 J8.760612
G01 X44.683664 Y41.174660 Z-1.000000
G00 Z5.000000

(End cutting path id: path394)


(Start cutting path id: path394)
(Change tool to Default tool)

G00 Z5.000000
G00 X41.076609 Y41.239360

G01 Z-1.000000 F100.0(Penetrate)
G03 X42.695912 Y43.153775 Z-1.000000 I-1.708793 J3.087428 F400.000000
G03 X43.586752 Y48.361190 Z-1.000000 I-14.774586 J5.207415
G03 X42.467380 Y53.643589 Z-1.000000 I-13.023699 J-0.000000
G03 X40.260764 Y55.856580 Z-1.000000 I-3.987530 J-1.769418
G03 X38.533748 Y56.398328 Z-1.000000 I-3.177158 J-7.104709
G03 X36.294267 Y56.608810 Z-1.000000 I-2.239481 J-11.808567
G01 X34.009869 Y56.608810 Z-1.000000
G01 X34.009869 Y48.516690 Z-1.000000
G01 X34.009869 Y40.424560 Z-1.000000
G01 X36.807155 Y40.424560 Z-1.000000
G03 X39.537748 Y40.682789 Z-1.000000 I-0.000000 J14.566205
G03 X41.076609 Y41.239360 Z-1.000000 I-0.971998 J5.093150
G01 X41.076609 Y41.239360 Z-1.000000
G00 Z5.000000

(End cutting path id: path394)


(Start cutting path id: path394)
(Change tool to Default tool)

G00 Z5.000000
G00 X67.276939 Y38.871630

G01 Z-1.000000 F100.0(Penetrate)
G02 X67.566220 Y39.766667 Z-1.000000 I1.529267 J0.000000 F400.000000
G02 X68.285032 Y40.268250 Z-1.000000 I1.076731 J-0.777197
G03 X68.863044 Y40.876635 Z-1.000000 I-0.220670 J0.788423
G03 X69.293125 Y44.740360 Z-1.000000 I-17.140245 J3.863725
G03 X68.863044 Y48.604085 Z-1.000000 I-17.570326 J0.000000
G03 X68.285032 Y49.212470 Z-1.000000 I-0.798681 J-0.180037
G02 X67.017578 Y50.680975 Z-1.000000 I0.472797 J1.689284
G02 X67.962659 Y51.753530 Z-1.000000 I0.945081 J0.119898
G03 X68.645556 Y51.792139 Z-1.000000 I-0.000000 J6.058628
G03 X70.986938 Y52.096600 Z-1.000000 I-8.136843 J71.729593
G02 X72.955336 Y52.011235 Z-1.000000 I0.761059 J-5.188005
G02 X73.325497 Y51.543270 Z-1.000000 I-0.110726 J-0.467965
G03 X73.651823 Y51.200463 Z-1.000000 I0.343223 J0.000000
G03 X74.812606 Y51.469970 Z-1.000000 I0.107116 J2.173183
G02 X79.146973 Y52.057648 Z-1.000000 I2.923112 J-5.281450
G02 X81.838707 Y49.780520 Z-1.000000 I-0.916940 J-3.813370
G02 X82.191043 Y48.423655 Z-1.000000 I-4.361469 J-1.856716
G02 X82.398335 Y44.502990 Z-1.000000 I-36.973504 J-3.920665
G03 X82.726866 Y40.760260 Z-1.000000 I21.483459 J0.000000
G03 X83.154404 Y40.229500 Z-1.000000 I0.696110 J0.123156
G02 X83.675758 Y39.761645 Z-1.000000 I-0.397105 J-0.966926
G02 X83.910474 Y38.838080 Z-1.000000 I-1.699671 J-0.923565
G02 X83.405000 Y38.262661 Z-1.000000 I-0.580259 J0.000000
G02 X75.593707 Y37.757190 Z-1.000000 I-7.811293 J60.103175
G02 X67.797000 Y38.277261 Z-1.000000 I-0.000000 J58.702716
G02 X67.276939 Y38.871660 Z-1.000000 I0.079652 J0.594399
G01 X67.276939 Y38.871630 Z-1.000000
G00 Z5.000000

(End cutting path id: path394)


(Start cutting path id: path394)
(Change tool to Default tool)

G00 Z5.000000
G00 X72.483876 Y44.786760

G01 Z-1.000000 F100.0(Penetrate)
G03 X72.309634 Y50.732083 Z-1.000000 I-198.407516 J-2.839580 F400.000000
G03 X72.209836 Y50.969530 Z-1.000000 I-0.371549 J-0.016466
G03 X71.989341 Y51.057247 Z-1.000000 I-0.203235 J-0.189887
G03 X71.035276 Y50.896430 Z-1.000000 I0.286702 J-4.611363
G03 X70.503877 Y50.285788 Z-1.000000 I0.197396 J-0.708320
G03 X70.206649 Y44.713880 Z-1.000000 I34.628018 J-4.641082
G03 X70.850029 Y39.305066 Z-1.000000 I29.715485 J0.791994
G03 X71.466765 Y38.805900 Z-1.000000 I0.616861 J0.131571
G03 X72.060715 Y39.307275 Z-1.000000 I0.000112 J0.602364
G03 X72.483876 Y44.786740 Z-1.000000 I-29.687818 J5.048765
G01 X72.483876 Y44.786760 Z-1.000000
G00 Z5.000000

(End cutting path id: path394)


(Start cutting path id: path394)
(Change tool to Default tool)

G00 Z5.000000
G00 X81.001561 Y43.255540

G01 Z-1.000000 F100.0(Penetrate)
G03 X80.102934 Y49.305313 Z-1.000000 I-26.235064 J-0.805301 F400.000000
G03 X79.008108 Y50.623350 Z-1.000000 I-1.988488 J-0.538009
G03 X78.311532 Y50.774984 Z-1.000000 I-0.665815 J-1.382834
G03 X78.239951 Y50.607950 Z-1.000000 I0.001999 J-0.099712
G02 X78.595784 Y49.812810 Z-1.000000 I-1.020848 J-0.934029
G02 X78.870009 Y44.362740 Z-1.000000 I-54.021467 J-5.450070
G03 X79.379743 Y39.315291 Z-1.000000 I25.245122 J-0.000000
G03 X80.004114 Y38.804880 Z-1.000000 I0.625083 J0.127553
G03 X80.625231 Y39.301734 Z-1.000000 I0.000580 J0.635930
G03 X81.001561 Y43.255550 Z-1.000000 I-15.470904 J3.467363
G01 X81.001561 Y43.255540 Z-1.000000
G00 Z5.000000

(End cutting path id: path394)


(Start cutting path id: path394)
(Change tool to Default tool)

G00 Z5.000000
G00 X77.419479 Y40.424560

G01 Z-1.000000 F100.0(Penetrate)
G03 X77.666248 Y40.653337 Z-1.000000 I0.000000 J0.247477 F400.000000
G03 X77.756288 Y44.869270 Z-1.000000 I-38.752161 J2.936556
G03 X77.220126 Y48.985024 Z-1.000000 I-21.501229 J-0.708180
G03 X76.690310 Y49.502080 Z-1.000000 I-0.666983 J-0.153469
G03 X74.967182 Y48.693393 Z-1.000000 I-0.319156 J-1.560091
G03 X73.829544 Y44.156830 Z-1.000000 I8.476414 J-4.536563
G03 X74.205747 Y40.789579 Z-1.000000 I15.257613 J0.000000
G03 X74.711625 Y40.258510 Z-1.000000 I0.697343 J0.157789
G03 X75.592226 Y40.126960 Z-1.000000 I0.973124 J3.500972
G03 X76.264991 Y40.218910 Z-1.000000 I0.053828 J2.113331
G02 X76.942580 Y40.382386 Z-1.000000 I1.688278 J-5.511706
G02 X77.419479 Y40.424520 Z-1.000000 I0.476899 J-2.677866
G01 X77.419479 Y40.424560 Z-1.000000
G00 Z5.000000

(End cutting path id: path394)


(Start cutting path id: path394)
(Change tool to Default tool)

G00 Z5.000000
G00 X125.746340 Y38.856640

G01 Z-1.000000 F100.0(Penetrate)
G02 X126.037476 Y39.765264 Z-1.000000 I1.563461 J0.000000 F400.000000
G02 X126.754430 Y40.268250 Z-1.000000 I1.072003 J-0.765565
G03 X127.332358 Y40.876701 Z-1.000000 I-0.220622 J0.788248
G03 X127.762520 Y44.745570 Z-1.000000 I-17.183188 J3.868869
G03 X127.418100 Y48.709833 Z-1.000000 I-22.986461 J-0.000000
G03 X126.971100 Y49.265760 Z-1.000000 I-0.727643 J-0.127399
G02 X126.475619 Y49.762060 Z-1.000000 I0.344938 J0.839850
G02 X126.341040 Y50.807040 Z-1.000000 I1.897005 J0.775464
G02 X126.914873 Y51.578136 Z-1.000000 I0.979665 J-0.129980
G02 X129.400680 Y52.185060 Z-1.000000 I2.876190 J-6.386067
G01 X132.298940 Y52.346850 Z-1.000000
G01 X132.298940 Y46.443430 Z-1.000000
G03 X132.642796 Y40.770498 Z-1.000000 I46.967975 J0.000000
G03 X133.055010 Y40.229470 Z-1.000000 I0.667799 J0.081254
G02 X133.575024 Y39.760709 Z-1.000000 I-0.394397 J-0.960334
G02 X133.811080 Y38.823070 Z-1.000000 I-1.744169 J-0.937639
G02 X133.336271 Y38.202000 Z-1.000000 I-0.643597 J0.000000
G02 X129.778710 Y37.727190 Z-1.000000 I-3.557561 J13.090289
G02 X126.233463 Y38.214326 Z-1.000000 I0.000000 J13.144246
G02 X125.746340 Y38.856640 Z-1.000000 I0.179912 J0.642314
G01 X125.746340 Y38.856640 Z-1.000000
G00 Z5.000000

(End cutting path id: path394)


(Start cutting path id: path394)
(Change tool to Default tool)

G00 Z5.000000
G00 X131.290850 Y45.047620

G01 Z-1.000000 F100.0(Penetrate)
G03 X130.805634 Y50.717452 Z-1.000000 I-33.369060 J-0.000000 F400.000000
G03 X130.244460 Y51.116710 Z-1.000000 I-0.481709 J-0.083056
G03 X129.662551 Y50.544297 Z-1.000000 I0.115174 J-0.699072
G03 X129.110360 Y44.875120 Z-1.000000 I33.945145 J-6.167818
G03 X129.545252 Y39.321055 Z-1.000000 I30.121577 J-0.435490
G03 X130.156750 Y38.806020 Z-1.000000 I0.611436 J0.105424
G03 X130.774905 Y39.322034 Z-1.000000 I-0.000068 J0.628345
G03 X131.290850 Y45.047620 Z-1.000000 I-31.511221 J5.725586
G01 X131.290850 Y45.047620 Z-1.000000
G00 Z5.000000

(End cutting path id: path394)


(Start cutting path id: path394)
(Change tool to Default tool)

G00 Z5.000000
G00 X162.919770 Y38.309870

G01 Z-1.000000 F100.0(Penetrate)
G02 X161.759613 Y40.455073 Z-1.000000 I1.303752 J2.091405 F400.000000
G02 X163.012670 Y42.563480 Z-1.000000 I2.491893 J-0.054410
G02 X166.139780 Y42.692378 Z-1.000000 I1.687658 J-2.946321
G02 X167.582220 Y40.424560 Z-1.000000 I-1.061523 J-2.267818
G02 X167.390532 Y39.097538 Z-1.000000 I-4.689212 J0.000000
G02 X166.977360 Y38.374560 Z-1.000000 I-1.734797 J0.511862
G02 X165.326297 Y37.641907 Z-1.000000 I-1.687890 J1.577031
G02 X162.919790 Y38.309860 Z-1.000000 I-0.070401 J4.415424
G01 X162.919770 Y38.309870 Z-1.000000
G00 Z5.000000

(End cutting path id: path394)


(Start cutting path id: path394)
(Change tool to Default tool)

G00 Z5.000000
G00 X166.574110 Y40.424560

G01 Z-1.000000 F100.0(Penetrate)
G03 X165.664801 Y41.621935 Z-1.000000 I-1.243005 J0.000000 F400.000000
G03 X163.745470 Y41.212870 Z-1.000000 I-0.568496 J-2.039894
G03 X163.374815 Y40.424563 Z-1.000000 I0.652956 J-0.788307
G03 X163.745470 Y39.636250 Z-1.000000 I1.023625 J-0.000000
G03 X165.664801 Y39.227185 Z-1.000000 I1.350835 J1.630829
G03 X166.574110 Y40.424560 Z-1.000000 I-0.333695 J1.197375
G01 X166.574110 Y40.424560 Z-1.000000
G00 Z5.000000

(End cutting path id: path394)


(Start cutting path id: path394)
(Change tool to Default tool)

G00 Z5.000000
G00 X162.919770 Y46.941480

G01 Z-1.000000 F100.0(Penetrate)
G02 X161.759615 Y49.086666 Z-1.000000 I1.303725 J2.091387 F400.000000
G02 X163.012670 Y51.195070 Z-1.000000 I2.491890 J-0.054410
G02 X166.139780 Y51.323968 Z-1.000000 I1.687658 J-2.946321
G02 X167.582220 Y49.056150 Z-1.000000 I-1.061523 J-2.267818
G02 X167.390536 Y47.729147 Z-1.000000 I-4.689177 J0.000000
G02 X166.977360 Y47.006160 Z-1.000000 I-1.734810 J0.511863
G02 X165.326295 Y46.273510 Z-1.000000 I-1.687882 J1.577024
G02 X162.919790 Y46.941460 Z-1.000000 I-0.070385 J4.415494
G01 X162.919770 Y46.941480 Z-1.000000
G00 Z5.000000

(End cutting path id: path394)


(Start cutting path id: path394)
(Change tool to Default tool)

G00 Z5.000000
G00 X166.574110 Y49.056150

G01 Z-1.000000 F100.0(Penetrate)
G03 X165.664795 Y50.253528 Z-1.000000 I-1.243006 J0.000000 F400.000000
G03 X163.745470 Y49.844460 Z-1.000000 I-0.568488 J-2.039899
G03 X163.374817 Y49.056157 Z-1.000000 I0.652954 J-0.788303
G03 X163.745470 Y48.267860 Z-1.000000 I1.023593 J0.000000
G03 X165.664806 Y47.858788 Z-1.000000 I1.350846 J1.630843
G03 X166.574110 Y49.056150 Z-1.000000 I-0.333685 J1.197362
G01 X166.574110 Y49.056150 Z-1.000000
G00 Z5.000000

(End cutting path id: path394)


(Start cutting path id: path394)
(Change tool to Default tool)

G00 Z5.000000
G00 X127.762520 Y54.990380

G01 Z-1.000000 F100.0(Penetrate)
G02 X126.938728 Y56.142035 Z-1.000000 I3.974381 J3.713382 F400.000000
G02 X126.754430 Y56.878540 Z-1.000000 I1.379490 J0.736505
G02 X127.631758 Y58.968340 Z-1.000000 I2.927622 J-0.000000
G02 X129.778710 Y59.845660 Z-1.000000 I2.146952 J-2.188320
G02 X131.925662 Y58.968340 Z-1.000000 I0.000000 J-3.065640
G02 X132.802990 Y56.878540 Z-1.000000 I-2.050295 J-2.089800
G02 X131.925668 Y54.788753 Z-1.000000 I-2.927605 J0.000000
G02 X129.778710 Y53.911430 Z-1.000000 I-2.146958 J2.188325
G02 X128.869608 Y54.139387 Z-1.000000 I0.000000 J1.926744
G02 X127.762520 Y54.990380 Z-1.000000 I2.017985 J3.770895
G01 X127.762520 Y54.990380 Z-1.000000
G00 Z5.000000

(End cutting path id: path394)


(Start cutting path id: path394)
(Change tool to Default tool)

G00 Z5.000000
G00 X131.038830 Y56.871160

G01 Z-1.000000 F100.0(Penetrate)
G03 X130.170005 Y58.128663 Z-1.000000 I-1.344443 J-0.000000 F400.000000
G03 X128.650150 Y57.774610 Z-1.000000 I-0.495799 J-1.310860
G03 X128.485151 Y56.304594 Z-1.000000 I0.905334 J-0.845885
G03 X129.902470 Y55.626890 Z-1.000000 I1.207311 J0.704005
G03 X130.727085 Y56.067537 Z-1.000000 I-0.210679 J1.386165
G03 X131.038830 Y56.871160 Z-1.000000 I-0.879927 J0.803623
G01 X131.038830 Y56.871160 Z-1.000000
G00 Z5.000000

(End cutting path id: path394)


(Footer)
M5
G00 X0.0000 Y0.0000
M2
(Using default footer. To add your own footer create file "footer" in the output dir.)
(end)
%